public/svg/icon/ngc.svg

<svg xmlns="http://www.w3.org/2000/svg" xmlns:xlink="http://www.w3.org/1999/xlink" width="32" height="32" viewBox="0 0 32 32"><defs><linearGradient id="ngc-c" x1="50%" x2="50%" y1="0%" y2="100%"><stop offset="0%" stop-color="#FFF" stop-opacity=".5"/><stop offset="100%" stop-opacity=".5"/></linearGradient><circle id="ngc-b" cx="16" cy="15" r="15"/><filter id="ngc-a" width="111.7%" height="111.7%" x="-5.8%" y="-4.2%" filterUnits="objectBoundingBox"><feOffset dy=".5" in="SourceAlpha" result="shadowOffsetOuter1"/><feGaussianBlur in="shadowOffsetOuter1" result="shadowBlurOuter1" stdDeviation=".5"/><feComposite in="shadowBlurOuter1" in2="SourceAlpha" operator="out" result="shadowBlurOuter1"/><feColorMatrix in="shadowBlurOuter1" values="0 0 0 0 0 0 0 0 0 0 0 0 0 0 0 0 0 0 0.199473505 0"/></filter><path id="ngc-e" d="M20.5,15.8417508 L13.8039648,25 L14.0506608,17.5589226 L12.5,17.5589226 L13.1343612,11.026936 L20.2180617,10.0505051 L17.8920705,15.976431 L20.5,15.8417508 Z M15.0022026,22.3400673 L15.0022026,20.5892256 C15.0022026,20.4590575 14.8917531,20.3535354 14.7555066,20.3535354 C14.6192601,20.3535354 14.5088106,20.4590575 14.5088106,20.5892256 L14.5088106,22.3400673 C14.5088106,22.4702355 14.6192601,22.5757576 14.7555066,22.5757576 C14.8917531,22.5757576 15.0022026,22.4702355 15.0022026,22.3400673 Z M13.1696035,17.0538721 L14.5792952,17.0538721 L14.5151542,19.7474747 C14.5136408,19.8182968 14.5419844,19.8867283 14.5938127,19.9373841 C14.645641,19.9880399 14.7166045,20.0166691 14.7907489,20.016835 L14.8027313,20.016835 C14.9527629,20.016865 15.0752563,19.9022308 15.078326,19.7589226 L15.1431718,16.5824916 L13.7334802,16.5824916 L14.2057269,11.362963 C14.2112628,11.30256 14.1899904,11.2427127 14.1470991,11.1980213 C14.1042078,11.1533299 14.0436417,11.1279039 13.9801762,11.1279461 L13.94,11.1279461 C13.8230074,11.1281542 13.7253491,11.2132918 13.7144493,11.3245791 L13.1696035,17.0538721 Z M13.1696035,10.4545455 L15.777533,8.2996633 C15.9185022,6.14478114 14.5088106,5.80808081 14.5088106,5.80808081 L14.7202643,5 C17.0462555,5.67340067 16.6938326,8.23232323 16.6938326,8.23232323 L20.0770925,9.64646465 L13.1696035,10.4545455 Z"/><filter id="ngc-d" width="143.8%" height="117.5%" x="-21.9%" y="-6.2%" filterUnits="objectBoundingBox"><feOffset dy=".5" in="SourceAlpha" result="shadowOffsetOuter1"/><feGaussianBlur in="shadowOffsetOuter1" result="shadowBlurOuter1" stdDeviation=".5"/><feColorMatrix in="shadowBlurOuter1" values="0 0 0 0 0 0 0 0 0 0 0 0 0 0 0 0 0 0 0.204257246 0"/></filter></defs><g fill="none" fill-rule="evenodd"><use fill="#000" filter="url(#ngc-a)" xlink:href="#ngc-b"/><use fill="#F80000" xlink:href="#ngc-b"/><use fill="url(#ngc-c)" style="mix-blend-mode:soft-light" xlink:href="#ngc-b"/><circle cx="16" cy="15" r="14.5" stroke="#000" stroke-opacity=".097"/><g fill-rule="nonzero"><use fill="#000" filter="url(#ngc-d)" xlink:href="#ngc-e"/><use fill="#FFF" fill-rule="evenodd" xlink:href="#ngc-e"/></g></g></svg>

<svg xmlns="http://www.w3.org/2000/svg" xmlns:xlink="http://www.w3.org/1999/xlink" width="32" height="32" viewBox="0 0 32 32"><defs><filter id="a" width="111.7%" height="111.7%" x="-5.8%" y="-4.2%" filterUnits="objectBoundingBox"><feOffset dy=".5" in="SourceAlpha" result="shadowOffsetOuter1"/><feGaussianBlur in="shadowOffsetOuter1" result="shadowBlurOuter1" stdDeviation=".5"/><feComposite in="shadowBlurOuter1" in2="SourceAlpha" operator="out" result="shadowBlurOuter1"/><feColorMatrix in="shadowBlurOuter1" values="0 0 0 0 0 0 0 0 0 0 0 0 0 0 0 0 0 0 0.199473505 0"/></filter><filter id="d" width="143.8%" height="117.5%" x="-21.9%" y="-6.2%" filterUnits="objectBoundingBox"><feOffset dy=".5" in="SourceAlpha" result="shadowOffsetOuter1"/><feGaussianBlur in="shadowOffsetOuter1" result="shadowBlurOuter1" stdDeviation=".5"/><feColorMatrix in="shadowBlurOuter1" values="0 0 0 0 0 0 0 0 0 0 0 0 0 0 0 0 0 0 0.204257246 0"/></filter><linearGradient id="c" x1="50%" x2="50%" y1="0%" y2="100%"><stop offset="0%" stop-color="#FFF" stop-opacity=".5"/><stop offset="100%" stop-opacity=".5"/></linearGradient><circle id="b" cx="16" cy="15" r="15"/><path id="e" d="M20.5 15.842L13.804 25l.247-7.441H12.5l.634-6.532 7.084-.976-2.326 5.925 2.608-.134zm-5.498 6.498v-1.75c0-.13-.11-.236-.246-.236a.241.241 0 00-.247.235v1.751c0 .13.11.236.247.236a.241.241 0 00.246-.236zm-1.832-5.286h1.41l-.065 2.693a.258.258 0 00.079.19c.052.051.123.08.197.08h.012a.27.27 0 00.275-.258l.065-3.177h-1.41l.473-5.219a.21.21 0 00-.059-.165.231.231 0 00-.167-.07h-.04a.223.223 0 00-.226.197l-.544 5.729zm0-6.6L15.778 8.3c.14-2.155-1.27-2.492-1.27-2.492L14.72 5c2.326.673 1.974 3.232 1.974 3.232l3.383 1.414-6.907.809z"/></defs><g fill="none" fill-rule="evenodd"><use fill="#000" filter="url(#a)" xlink:href="#b"/><use fill="#F80000" xlink:href="#b"/><use fill="url(#c)" style="mix-blend-mode:soft-light" xlink:href="#b"/><circle cx="16" cy="15" r="14.5" stroke="#000" stroke-opacity=".097"/><g fill-rule="nonzero"><use fill="#000" filter="url(#d)" xlink:href="#e"/><use fill="#FFF" fill-rule="evenodd" xlink:href="#e"/></g></g></svg>
